X:1
T:Lord Jesus, Think on Me
T:Text: Synesius of Cyrene (ca. 375-430); tr. Allen W. Chatfield (1808-1896) Tune: William Damon's Psalms, 1579
T:SM SOUTHWELL www.hymnary.org/text/lord_jesus_think_on_me
T:Lord Jesus, Think on Me
T:This hymn is in the public domain.  You may freely use this score for personal and congregational worship.  If you reproduce the score, please credit Hymnary.org as the source. 
T:This hymn is in the public domain.  You may freely use this score for personal and congregational worship.  If you reproduce the score, please credit Hymnary.org as the source. 
Z:This hymn is in the public domain.  You may freely use this score for personal and congregational worship.  If you reproduce the score, please credit Hymnary.org as the source.
%%score ( 1 2 ) ( 3 4 )
L:1/8
M:4/4
K:G
V:1 treble nm="Piano" snm="Pno."
V:2 treble 
V:3 bass nm="Piano" snm="Pno."
V:4 bass 
V:1
 [B,E]2 | [B,G]2 [EG]2 F2 [^DF]2 | E6 [B,E]2 | [B,G]2 [DG]2 [EA]2 [DA]2 | [DB]6 | [GB]2 | %6
w: 3~Lord|Je- sus, think on|me, nor|let me go as-|tray;|through|
w: 1~Lord|Je- sus, think on|me, and|purge a- way my|sin;|from|
w: 2~Lord|Je- sus, think on|me, with|care and woe op-|pressed;|let|
 [Gd]2 [Fd]2 [Ec]2 [Dc]2 | [DB]2 [DB]2 [DA]2 [GB]2 | [FA]2 [EG]2 F2 [^DF]2 | E6 |] %10
w: dark- ness and per-|plex- i- ty point|to the hea- venly|way.|
w: earth- born pas- sions|set me free, and|make me pure with-|in.|
w: me your lo- ving|ser- vant be, and|taste your pro- mised|rest.|
V:2
 x2 | x4 E2 x2 | E6 x2 | x8 | x6 | x2 | x8 | x8 | x4 E2 x2 | E6 |] %10
V:3
 [E,G,]2 | [E,G,]2 [E,B,]2 [B,,B,]2 [B,,B,]2 | [E,G,]6 [E,G,]2 | [E,G,]2 [B,,G,]2 [C,G,]2 [D,F,]2 | %4
 [G,,G,]6 | [G,B,]2 | [D,A,]2 [D,A,]2 [E,G,]2 [F,A,]2 | G,2 [B,,G,]2 [D,F,]2 [G,,D]2 | %8
 [D,D]2 [E,B,]2 [B,,B,]2 [B,,B,]2 | [E,G,]6 |] %10
V:4
 x2 | x8 | x8 | x8 | x6 | x2 | x8 | G,2 x6 | x8 | x6 |] %10

